X:66
T:Down Through the Broom
B:Joyce, P. W.; "Old Irish Folk Music and Songs"
R:reel
L:1/8
M:C
Z:Allan Garvin
K:G
A2 BG A2 Bd|egfa gedB|G2 BE GEBE|G2 BA GEDE|
A2 BG A2 Bd|egfg efga|gfge d3 e|gfgB BA A2||
a2 ba a2 ba|a2 ba gede|g2 ag g2 ag|g2 ba gede|
a2 ba a2 ba|ac'ba gede|gfge  d3  e|gfgB BA B2||
